T: Rowan Tree, The
M: 4/4
L: 1/8
K: Amaj
|: A |c>cc>B c<ee>a | f>ef<a f2 e>A |\
c>cc>B c<ee<a | e<cB>c A2- A :|
|: c |e>aa>g g<ff>a | e>fe>c c2 B>A |\
c>cc>B c<ee<a | e<cB>c A2- A :|
